src/components/atoms/Icon/icons/facebook-f-regular.svg

<svg xmlns="http://www.w3.org/2000/svg" xmlns:xlink="http://www.w3.org/1999/xlink" viewBox="0 0 24 24"><g fill="none" fill-rule="evenodd"><path fill="#4568B2" fill-rule="nonzero" d="M17.4759184,7.70889796 L13.7314286,7.70889796 L13.7314286,5.25306122 C13.7314286,4.33077551 14.3426939,4.1157551 14.7732245,4.1157551 C15.2027755,4.1157551 17.4156735,4.1157551 17.4156735,4.1157551 L17.4156735,0.0612244898 L13.7764898,0.0470204082 C9.73665306,0.0470204082 8.81730612,3.07102041 8.81730612,5.00620408 L8.81730612,7.70889796 L6.48097959,7.70889796 L6.48097959,11.8868571 L8.81730612,11.8868571 C8.81730612,17.2486531 8.81730612,23.7090612 8.81730612,23.7090612 L13.7314286,23.7090612 C13.7314286,23.7090612 13.7314286,17.1849796 13.7314286,11.8868571 L17.0473469,11.8868571 L17.4759184,7.70889796 Z" /></g></svg>

<svg xmlns="http://www.w3.org/2000/svg" xmlns:xlink="http://www.w3.org/1999/xlink" viewBox="0 0 12 24"><defs><path id="facebook-f-regular-a" d="M0 0h24v24H0z"/></defs><g transform="translate(-6)" fill="none" fill-rule="evenodd"><mask id="facebook-f-regular-b" fill="#fff"><use xlink:href="#facebook-f-regular-a"/></mask><g mask="url(#facebook-f-regular-b)" fill="#FFF" fill-rule="nonzero"><path d="M17.476 7.709H13.73V5.253c0-.922.612-1.137 1.042-1.137h2.643V.06l-3.64-.014c-4.04 0-4.959 3.024-4.959 4.96v2.702H6.481v4.178h2.336v11.822h4.914V11.887h3.316l.429-4.178z"/></g></g></svg>
